brandFactory_export/3.Masa/Carpeta_3Masa.svg

<?xml version="1.0" encoding="UTF-8"?>
<svg width="24px" height="24px" viewBox="0 0 24 24" version="1.1" xmlns="http://www.w3.org/2000/svg" xmlns:xlink="http://www.w3.org/1999/xlink">
    <title>3.Masa/Carpeta_3Masa</title>
    <g id="Symbols" stroke="none" stroke-width="1" fill="none" fill-rule="evenodd">
        <g id="3.Masa/Carpeta_3Masa" fill="#5CB615" fill-rule="nonzero">
            <path d="M22.087395,2.70588235 L11.8117647,2.70588235 L11.8117647,1.51596639 C11.805042,0.678991597 11.1226891,0.00336134454 10.2857143,0.0100342961 L1.50588235,0.0100342961 C0.675630252,0.0134453782 0.00672268908,0.685714286 0,1.51596639 L0,18.0705882 C0.00672268908,18.9008403 0.675630252,19.5697479 1.50588235,19.5765831 L22.087395,19.5765831 C22.9243697,19.5865546 23.6134454,18.9176471 23.6235294,18.0806723 L23.6235294,4.21176471 C23.6168067,3.37478992 22.9344538,2.69915966 22.097479,2.70588235 L22.087395,2.70588235 Z" id="Path"></path>
        </g>
    </g>
</svg>

<svg width="24" height="24" viewBox="0 0 24 24" xmlns="http://www.w3.org/2000/svg"><path d="M22.087 2.706H11.812v-1.19A1.516 1.516 0 0010.286.01h-8.78C.676.013.006.686 0 1.516v16.555c.007.83.676 1.499 1.506 1.506h20.581a1.517 1.517 0 001.537-1.496V4.21a1.516 1.516 0 00-1.527-1.505h-.01z" fill="#5CB615" fill-rule="nonzero"/></svg>
